X: 15
T:Fox Hunter's Reel [in A], The
M:C|
L:1/8
R:Reel
K:A
e2cA eAcA|eAcA BAFA|e2cA eAcA|BdcA BAFA|!
e2cA eAcA|eAcA BAFA|e2cA eAcA|BdcA BAFA|]!
E3c cBcA|EAcA BAFA|~E3c cBcA|BdcA BAFA|!
E3c cBcA|EAcA BAFA|~E3c cBcA|BdcA BAFA|]!
afec A2ce|afec fB~B2|afec ABcA|Bcde fBBf|!
afec A2ce|afec fB~B2|afec ABcA|Bcde fBBf|]!
eaag a2af|ea~a2 faec|eaag ~a3e|faec BABc|!
eaag a2af|ea~a2 faec|eaag ~a3e|faec BABc|]!
A2cA eAcA|Ac~c2 BABc|A2cA eAce|faec BABc|!
A2cA eAcA|Ac~c2 BABc|A2cA eAce|faec BABc|]!
